!!!OTL: 529. Frau Nachtigall.
!!!ARE: Europa, Mitteleuropa, Deutschland
!!!SCT: E0529
!!!TXL: @@DE
!!!YEM: Copyright 1995, estate of Helmut Schaffrath.
**kern	**text
*ICvox	*
*M3/4	*
*k[b-]	*
*F:	*
!LO:TX:a:t=Mäßiglangsam.	!
!LO:TX:a:t=Volksweiſe ſeit 1807 bekannt. Erk, Liederhort, Nr. 159.	!
{8c	Nach-
8c	-ti-
=1	=1
4f	-gall,
4a	ich
8a	hör
8g	dich
=2	=2
8g	ſin-
8f	-gen,
8r}	.
{8f	das
8f	Herʒ
8g	im
=3	=3
4a	Leib
4cc	möcht
8cc	mir
8b-	ʒer-
=4	=4
8b-/	-ſprin-
8a	-gen
4r	.
4r}	.
=5	=5
{8cc	komm
16ccL	nur
16aJ	.
4f	bald
4cc	und
=6	=6
16b-L	ſag
16ccJ	.
16ddL	mirs
16b-J	.
4g	wohl,
4r}	.
=7	=7
{8c	wie
8e	ich
4g	mich
4b-	ver-
=8	=8
8a	-hal-
16ccL	-ten
16aJ	.
8f;L	ſoll
8a	.
8g	.
8b-J	.
=9	=9
8aL	.
8ddJ	.
4cc}	.
{16ccL	wie
16b-J	.
16aL	ich
16gJ	.
=10	=10
4f	mich
4a	ver-
16aL	-hal-
16gJ	.
16fL	-ten
16eJ	.
=11	=11
4f	ſoll.
4r}	.
==	==
!!!AGN: Liebes - Lied
!!!ONB: ESAC (Essen Associative Code) Database: ERK1
!!!AMT: simple triple
!!!AIN: vox
!!!EED: Helmut Schaffrath
!!!EEV: 1.0
!!!GTL: Liebeslieder [Neuere (aus dem 18. bis 19. Jahrh.) - Liebeslust]
!!!URL-scan: https://rosdok.uni-rostock.de/mcrviewer/recordIdentifier/rosdok_ppn745177662/iview2/phys_0358.iview2?x=-128.77276441889308&y=254.599680039566&scale=0.5870222003877485&rotation=0&layout=singlePageLayout
!!!ENC: Anna Maria Matuszewska
!!!EEV: 2024/10/12
*-	*-
